public/images/icons/src/Poll.svg

<?xml version="1.0" encoding="utf-8"?>
<!-- Generated by IcoMoon.io -->
<!DOCTYPE svg PUBLIC "-//W3C//DTD SVG 1.1//EN" "http://www.w3.org/Graphics/SVG/1.1/DTD/svg11.dtd">
<svg version="1.1" xmlns="http://www.w3.org/2000/svg" xmlns:xlink="http://www.w3.org/1999/xlink" width="32" height="32" viewBox="0 0 32 32">
<path fill="#444" d="M1.984 8.32h7.68v16.64h-7.68zM3.264 23.68h5.12v-14.080h-5.12zM31.394 27.52v-1.28h-30.722v1.28h30.722zM12.256 4.512h7.68v20.416h-7.68zM13.536 23.648h5.12v-17.856h-5.12zM22.464 12.16h7.68v12.8h-7.68zM23.744 13.44v10.24h5.12v-10.24z"></path>
</svg>

<?xml version="1.0" encoding="utf-8"?> <!-- Generator: IcoMoon.io --> <!DOCTYPE svg PUBLIC "-//W3C//DTD SVG 1.1//EN" "http://www.w3.org/Graphics/SVG/1.1/DTD/svg11.dtd"> <svg width="32" height="32" viewBox="0 0 32 32" version="1.1" xmlns="http://www.w3.org/2000/svg" xmlns:xlink="http://www.w3.org/1999/xlink" xmlns:sketch="http://www.bohemiancoding.com/sketch/ns" fill="#000000"> <g><path d="M 1.984,8.32 L 9.664,8.32 L 9.664,24.96 L 1.984,24.96 Z M 3.264,23.68 L 8.384,23.68 L 8.384,9.6 L 3.264,9.6 Z M 3.264,23.68M 31.394,27.52 L 31.394,26.24 L 0.672,26.24 L 0.672,27.52 L 31.394,27.52 Z M 31.394,27.52M 12.256,4.512 L 19.936,4.512 L 19.936,24.928 L 12.256,24.928 Z M 13.536,23.648 L 18.656,23.648 L 18.656,5.792 L 13.536,5.792 Z M 13.536,23.648M 22.464,12.16 L 30.144,12.16 L 30.144,24.96 L 22.464,24.96 Z M 23.744,13.44 L 23.744,23.68 L 28.864,23.68 L 28.864,13.44 Z M 23.744,13.44"></path></g></svg>
